teeny/solid/shop.svg

<svg width="15" height="15" viewBox="0 0 15 15" fill="none" xmlns="http://www.w3.org/2000/svg">
<path d="M14 1H1V0H14V1Z" fill="black"/>
<path d="M1.00971 2.40194C1.05646 2.16823 1.26166 2 1.5 2H13.5C13.7383 2 13.9436 2.16823 13.9903 2.40194L14.9903 7.40194C15.0197 7.54883 14.9816 7.70115 14.8867 7.81699C14.7917 7.93284 14.6498 8 14.5 8H0.500004C0.350208 8 0.208303 7.93284 0.113333 7.81699C0.0183639 7.70115 -0.0196636 7.54883 0.00971396 7.40194L1.00971 2.40194Z" fill="black"/>
<path d="M1 9V14H1.46883e-10V15H15V14H14V9H12V11H3V9H1Z" fill="black"/>
<path d="M4 9H11V10H4V9Z" fill="black"/>
</svg>

<svg viewBox="0 0 15 15" xmlns="http://www.w3.org/2000/svg"><g><path d="M14 1H1V0h13v1Z"/><path d="M1 2.4c.04-.24.25-.41.49-.41h12c.23 0 .44.16.49.4l1 5c.02.14-.01.29-.11.41 -.1.11-.24.18-.39.18h-14c-.15 0-.3-.07-.39-.19 -.1-.12-.14-.27-.11-.42l.99-5Z"/><path d="M1 9v5H0v1h15v-1h-1V9h-2v2H3V9H1Z"/><path d="M4 9h7v1H4V9Z"/></g></svg>
